X:1
T: Roly Gentle
C: Kathryn Tickell
R: waltz
N: Named in memory of a friend of Kathryn's from Cambridge.
N: From Kathryn's "Borderlands" LP (1986), in a set with "Stellgreen".
N: Also on the first Kathryn Tickell Band record (1991), in a set with
N: "Hot Rivets" (Alistair Anderson), "Tartar Frigate" and "Closed Face Reel".
N: (And now on "The Best of Kathryn Tickell"!)
S: Si <SiGarb:aol.com> 2010-5-11
M: 3/4
L: 1/8
%Q:1/4=160
K: Ddor
AGE |\
D2 DE FA | f2 fe dc | A2 AG Ac | E2 ED EF |\
D2 DF Ad | ^c2 cA GE | A2 dA GE | D3 :| AB^c |
d2 de fd | ec A2 AG | F2 FEFA | EA FA EA |\
d2 de fd | e^c A2 B2 | c2 cA cd | ed cA GE |
d2 de fd | ec A2 AG | F2 FE FA | EA FA EA |\
d2 de fa | gf ed ^cA | c2 cA cd | ed c |]
